X:3860
T:Ländler
O:england
R:Ländler
C:trad.
S:Original: Ges. d. Musikfreunde "Sonnleithnersammlung", D-Dur
A:V, Montafon, 1819
P:2
M:3/4
L:1/8
K:G
d2|e2d2c2|B2(GB) dB|A2(FA) cA|B2(GB) dB|\
e2d2c2|B2(GB) dB|(cA) (ec) AF|G4:|
|:B2|A2(FA) cA|B2(GB) dB|c2(Ac) ec|d4B2|\
A2(FA) cA|B2(GB) dB|(cA) (ec) AF|G4:|


